X:25
T:Bransle
R:Branle
C:GERVAISE
Q:1/2=120
I:abc2nwc
Z:Transcrit et/ou corrig par Michel BELLON - 2005-03-27
Z:Pour toute observation mailto:galouvielle@free.fr
M:4/4
L:1/8
K:C
V:1
G2A2B2B2|c2B2A2G2|B2B2A2G2|A4A4|G2A2B2B2|c2B2A2G2|B2B2A2G2|G2^F2G4:|
|:d2d2B2B2|AB cA B2c2|d2d2B2B2|AB cA B4:|
G2A2B2B2|c2B2A2G2|B2B2A2G2|A4A4|G2A2B2B2|c2B2A2G2|B2B2A2G2|G2^F2G4|]
V:2
D2^F2G2G2|G2G2^F2D2|D2G2^F2D2|^F4F4| D2^F2G2G2|G2G2^F2D2|D2G2-G^F ED|E2D2D4:|
|:G2G2G2G2|ED E^F G2G2|G2G2G2G2|ED E^F G4:|
D2^F2G2G2|G2G2^F2D2|D2G2^F2D2|^F4F4| D2^F2G2G2|G2G2^F2D2|D2G2-G^F ED|E2D2D4|]
V:3
B2d2d2d2|e2d2d2B2|B2d2d2B2|A4A4|B2d2d2d2|e2d2d2B2|B2d2c2B2|A2A2G4:|
|:B2B2d2d2|c2c2d2d2|B2B2d2d2|c2c2d4:|
B2d2d2d2|e2d2d2B2|B2d2d2B2|A4A4|B2d2d2d2|e2d2d2B2|B2d2c2B2|A2A2G4|]
V:4
K:C Bass
G,2D,2G,2G,2|C,2G,,2D,2G,,2|G,2G,2D,2G,2|D,4D,4| G,2D,2G,2G,2|C,2G,,2D,2G,,2|G,,2G,,2A,,2B,,2|C,2D,2G,,4:|
|:G,2G,2G,2G,2|A,2A,2G,2C,2|G,2G,2G,2G,2|A,2A,2G,4:|
G,2D,2G,2G,2|C,2G,,2D,2G,,2|G,2G,2D,2G,2|D,4D,4|G,2D,2G,2G,2| C,2G,,2D,2G,,2|G,,2G,,2A,,2B,,2|C,2D,2G,,4|]
%%footer $D   Galouvielle-MBe 2007 \nBranle double (France)
